Flat-Remix-Dark/apps/scalable/gnome-documents.svg

<svg xmlns="http://www.w3.org/2000/svg" width="384pt" height="384pt" version="1.1" viewBox="0 0 384 384"> <g> <path style="fill:rgb(10.588%,24.705%,48.627%)" d="M 65.46875 33.269531 C 65.46875 27.84375 71.925781 22.144531 77.351562 22.144531 L 259.234375 22.144531 L 336.871094 99.324219 C 336.871094 99.324219 336.871094 257.089844 336.871094 323.523438 C 336.871094 328.765625 331.039062 334.683594 325.800781 334.683594 C 252.507812 334.683594 65.46875 334.683594 65.46875 334.683594 Z M 65.46875 33.269531"/> <path style="fill:rgb(0%,0%,0%);fill-opacity:0.168627" d="M 65.617188 31.820312 C 65.617188 26.476562 73.050781 22.136719 78.394531 22.136719 C 93.738281 22.136719 85.902344 22.136719 85.902344 22.136719 L 85.902344 334.660156 L 65.617188 334.660156 C 65.617188 334.660156 65.617188 129.488281 65.617188 31.820312 Z M 65.617188 31.820312"/> <path style="fill:rgb(72.156%,9.019%,29.803%)" d="M 46.929688 61.292969 C 46.929688 55.3125 54.308594 49.316406 60.289062 49.316406 L 240.699219 49.316406 L 318.332031 126.496094 C 318.332031 126.496094 318.417969 275.691406 318.417969 347.839844 C 318.417969 353.117188 309.253906 361.851562 303.976562 361.851562 C 225.703125 361.851562 60.941406 361.851562 60.941406 361.851562 C 54.867188 361.851562 46.929688 356.269531 46.929688 350.191406 Z M 46.929688 61.292969"/> <path style="fill:rgb(100.000%,100.000%,100.000%)" d="M 88.453125 286.867188 C 85.117188 286.867188 85.117188 276.867188 88.453125 276.867188 L 195.648438 276.867188 C 198.984375 276.867188 198.984375 286.867188 195.648438 286.867188 Z M 88.496094 246.878906 C 85.160156 246.878906 85.160156 236.875 88.496094 236.875 L 282.191406 236.875 C 285.527344 236.875 285.527344 246.878906 282.191406 246.878906 Z M 88.496094 206.886719 C 85.160156 206.886719 85.160156 196.882812 88.496094 196.882812 L 282.191406 196.882812 C 285.527344 196.882812 285.527344 206.886719 282.191406 206.886719 Z M 88.496094 166.875 C 85.167969 166.875 85.167969 156.894531 88.496094 156.894531 L 282.191406 156.894531 C 285.519531 156.894531 285.519531 166.875 282.191406 166.875 Z M 88.496094 166.875"/> <path style="fill:rgb(0%,0%,0%);fill-opacity:0.168627" d="M 46.820312 60.445312 C 46.820312 54.808594 53.8125 49.191406 59.449219 49.191406 C 85.132812 49.191406 67.164062 49.273438 67.164062 49.273438 L 67.164062 361.796875 C 67.164062 361.796875 83.113281 361.796875 60.21875 361.796875 C 54.410156 361.796875 46.878906 356.394531 46.878906 350.585938 C 46.878906 262.386719 46.820312 157.234375 46.820312 60.4375 Z M 46.820312 60.445312"/> <path style="fill:rgb(0%,0%,0%);fill-opacity:0.247059" d="M 243.839844 122.988281 L 301.15625 64.257812 L 336.792969 99.609375 L 336.949219 215.199219 Z M 243.839844 122.988281"/> <path style="fill:rgb(80.392%,36.078%,50.588%)" d="M 240.375 49.332031 L 318.570312 126.804688 C 318.570312 126.804688 274.195312 127.09375 251.09375 126.804688 C 245.691406 126.710938 240.554688 120.046875 240.375 114.644531 C 239.605469 91.757812 240.375 49.332031 240.375 49.332031 Z M 240.375 49.332031"/> <path style="fill:rgb(0%,0%,0%);fill-opacity:0.247059" d="M 263.113281 97.507812 L 308.066406 70.289062 L 336.558594 99.367188 L 336.96875 172.90625 Z M 263.113281 97.507812"/> <path style="fill:rgb(26.666%,37.647%,56.078%)" d="M 259.210938 22.230469 L 337.109375 99.636719 C 337.109375 99.636719 292.734375 99.921875 269.632812 99.636719 C 264.230469 99.539062 259.09375 92.875 258.910156 87.472656 C 258.144531 64.585938 259.210938 22.230469 259.210938 22.230469 Z M 259.210938 22.230469"/> </g> </svg>

<svg width="512" height="512" version="1.1" viewBox="0 0 384 384" xmlns="http://www.w3.org/2000/svg"><path d="m65.469 40.77c0-5.4258 6.457-11.125 11.883-11.125h181.88l77.637 77.18v224.2c0 5.2422-5.832 11.16-11.07 11.16h-260.33z" opacity=".3"/><path d="m46.93 68.793c0-5.9805 7.3789-11.977 13.359-11.977h180.41l77.633 77.18s0.0859 149.2 0.0859 221.34c0 5.2773-9.164 14.012-14.441 14.012h-243.04c-6.0742 0-14.012-5.582-14.012-11.66z" opacity=".3"/><path d="m65.469 33.27c0-5.4258 6.457-11.125 11.883-11.125h181.88l77.637 77.18v224.2c0 5.2422-5.832 11.16-11.07 11.16h-260.33z" fill="#1a3e7b"/><path d="m65.617 31.82c0-5.3438 7.4336-9.6836 12.777-9.6836h7.5078v312.52h-20.285v-302.84z" fill-opacity=".16863"/><path d="m46.93 61.293c0-5.9805 7.3789-11.977 13.359-11.977h180.41l77.633 77.18s0.085938 149.2 0.085938 221.34c0 5.2773-9.1641 14.012-14.441 14.012h-243.04c-6.0742 0-14.012-5.582-14.012-11.66z" fill="#b7164b"/><path d="m88.453 286.87c-3.3359 0-3.3359-10 0-10h107.2c3.3359 0 3.3359 10 0 10zm0.042969-39.988c-3.3359 0-3.3359-10.004 0-10.004h193.7c3.3359 0 3.3359 10.004 0 10.004zm0-39.992c-3.3359 0-3.3359-10.004 0-10.004h193.7c3.3359 0 3.3359 10.004 0 10.004zm0-40.012c-3.3281 0-3.3281-9.9805 0-9.9805h193.7c3.3281 0 3.3281 9.9805 0 9.9805z" fill="#fff"/><path d="m46.82 60.445c0-5.6367 6.9922-11.254 12.629-11.254 25.684 0 7.7148 0.082032 7.7148 0.082032v312.52h-6.9453c-5.8086 0-13.34-5.4023-13.34-11.211 0-88.199-0.058594-193.35-0.058594-290.15z" fill-opacity=".16863"/><path d="m243.84 122.99 57.316-58.73 35.637 35.352 0.15625 115.59z" fill-opacity=".24706"/><path d="m240.38 49.332 78.195 77.473s-44.375 0.28906-67.477 0c-5.4023-0.09375-10.539-6.7578-10.719-12.16-0.76953-22.887 0-65.312 0-65.312z" fill="#cc5b80"/><path d="m263.11 97.508 44.953-27.219 28.492 29.078 0.41016 73.539z" fill-opacity=".24706"/><path d="m259.21 22.23 77.898 77.406s-44.375 0.28516-67.477 0c-5.4023-0.097657-10.539-6.7617-10.723-12.164-0.76562-22.887 0.30078-65.242 0.30078-65.242z" fill="#435f8e"/></svg>
